paymentMethods/twint.svg

<svg width="128" height="64" viewBox="0 0 128 64" fill="none" xmlns="http://www.w3.org/2000/svg">
<rect width="128" height="64" rx="6" fill="black"/>
<path d="M40.0388 40.3371C40.0388 40.8083 39.6999 41.3918 39.2932 41.6162L24.765 49.9421C24.3583 50.1889 23.6805 50.1889 23.2738 49.9421L8.74561 41.6162C8.33892 41.3694 8 40.8083 8 40.3371V23.663C8 23.1917 8.33892 22.6082 8.74561 22.3838L23.2738 14.0579C23.6805 13.8111 24.3583 13.8111 24.765 14.0579L39.2932 22.3838C39.6999 22.6306 40.0388 23.1917 40.0388 23.663V40.3371Z" fill="white"/>
<path d="M120 24.567H106.948V27.6064H111.616V40.653H115.31V27.6064H120V24.567Z" fill="white"/>
<path d="M60.724 24.567H47.6724V27.6064H52.3627V40.653H56.0564V27.6064H60.724V24.567Z" fill="white"/>
<path d="M98.4964 24.0569C94.3951 24.0569 92.1066 26.6306 92.1066 30.336V40.6532H95.7547V30.2472C95.7547 28.6275 96.729 27.385 98.5417 27.385C100.332 27.385 101.306 28.8494 101.306 30.2472V40.6532H104.954V30.336C104.954 26.6306 102.598 24.0569 98.4964 24.0569Z" fill="white"/>
<path d="M84.6974 24.567V40.653H88.3675V24.567H84.6974Z" fill="white"/>
<path d="M72.3254 30.957L72.4612 31.6669L75.8826 40.653H77.3783L82.0458 24.567H78.4432L76.1996 33.021L76.0866 33.9299L75.9053 33.021L72.9139 24.567H71.7361L68.7674 33.021L68.5862 33.9299L68.4504 33.021L66.2296 24.567H62.627L67.2953 40.653H68.7902L72.2116 31.6669L72.3254 30.957Z" fill="white"/>
<path d="M30.7669 31.6865L27.0398 37.0047L25.1205 34.151L27.33 30.9515C27.7317 30.3894 28.6244 28.8112 27.5978 26.671C26.772 24.9415 24.9866 24.0984 23.4243 24.0984C21.862 24.0984 20.1436 24.8767 19.2508 26.671C18.2242 28.7248 19.1169 30.3462 19.4963 30.8866C19.4963 30.8866 20.7238 32.6377 21.7505 34.1078L23.4243 36.4426L25.9239 40.1394C25.9462 40.161 26.348 40.7447 27.0398 40.7447C27.7094 40.7447 28.1111 40.161 28.178 40.0962L34.0477 31.6865H30.7669ZM23.4243 31.8162C23.4243 31.8162 22.4423 30.3678 21.8174 29.3733C21.1255 28.2924 21.9067 26.6926 23.4243 26.6926C24.9643 26.6926 25.7231 28.2924 25.0312 29.3733C24.4063 30.3894 23.4243 31.8162 23.4243 31.8162Z" fill="url(#paint0_radial_227_25)"/>
<path d="M19.8087 36.8317L16.1262 31.8378C16.1262 31.8378 15.1442 30.3894 14.5193 29.3949C13.8275 28.314 14.6086 26.7142 16.1262 26.7142C16.3271 26.7142 16.5056 26.7358 16.6618 26.7791L17.9563 24.4875C17.3537 24.2497 16.7288 24.12 16.1262 24.12C14.5639 24.12 12.8455 24.8983 11.9527 26.6926C10.9261 28.7464 11.8188 30.3678 12.1982 30.9082L18.6258 40.1394C18.6705 40.2259 19.0945 40.8096 19.7641 40.8096C20.4559 40.8096 20.8353 40.2475 20.9023 40.161L22.8439 37.3074L21.1701 34.9293L19.8087 36.8317Z" fill="url(#paint1_radial_227_25)"/>
<defs>
<radialGradient id="paint0_radial_227_25" cx="0" cy="0" r="1" gradientUnits="userSpaceOnUse" gradientTransform="translate(541.24 102.151) scale(2645.44 2645.44)">
<stop stop-color="#FFCC00"/>
<stop offset="0.09157" stop-color="#FFC800"/>
<stop offset="0.1739" stop-color="#FFBD00"/>
<stop offset="0.2528" stop-color="#FFAB00"/>
<stop offset="0.3295" stop-color="#FF9100"/>
<stop offset="0.4046" stop-color="#FF7000"/>
<stop offset="0.4786" stop-color="#FF4700"/>
<stop offset="0.5503" stop-color="#FF1800"/>
<stop offset="0.5822" stop-color="#FF0000"/>
<stop offset="1" stop-color="#FF0000"/>
</radialGradient>
<radialGradient id="paint1_radial_227_25" cx="0" cy="0" r="1" gradientUnits="userSpaceOnUse" gradientTransform="translate(55.8639 119.278) scale(2425.66 2425.67)">
<stop stop-color="#00B4E6"/>
<stop offset="0.201" stop-color="#00B0E3"/>
<stop offset="0.3898" stop-color="#01A5DB"/>
<stop offset="0.5737" stop-color="#0292CD"/>
<stop offset="0.7546" stop-color="#0377BA"/>
<stop offset="0.9316" stop-color="#0455A1"/>
<stop offset="1" stop-color="#054696"/>
</radialGradient>
</defs>
</svg>

<svg xmlns="http://www.w3.org/2000/svg" width="128" height="64" fill="none"><rect width="128" height="64" fill="#000" rx="6"/><path fill="#fff" d="M40.039 40.337c0 .471-.34 1.055-.746 1.28l-14.528 8.325c-.407.247-1.085.247-1.491 0L8.746 41.616C8.339 41.37 8 40.808 8 40.337V23.663c0-.471.339-1.055.746-1.28l14.528-8.325c.406-.247 1.084-.247 1.491 0l14.528 8.326c.407.247.746.808.746 1.279v16.674ZM120 24.567h-13.052v3.04h4.668v13.046h3.694V27.606H120v-3.039ZM60.724 24.567H47.672v3.04h4.69v13.046h3.694V27.606h4.668v-3.039ZM98.496 24.057c-4.1 0-6.39 2.574-6.39 6.279v10.317h3.649V30.247c0-1.62.974-2.862 2.787-2.862 1.79 0 2.764 1.464 2.764 2.862v10.406h3.648V30.336c0-3.705-2.356-6.28-6.458-6.28ZM84.697 24.567v16.086h3.67V24.567h-3.67ZM72.325 30.957l.136.71 3.422 8.986h1.495l4.668-16.086h-3.603L76.2 33.021l-.113.909-.182-.909-2.991-8.454h-1.178l-2.969 8.454-.18.909-.137-.909-2.22-8.454h-3.603l4.668 16.086h1.495l3.422-8.986.113-.71Z"/><path fill="url(#a)" d="m30.767 31.686-3.727 5.319-1.92-2.854 2.21-3.2c.402-.562 1.294-2.14.268-4.28-.826-1.73-2.611-2.573-4.174-2.573-1.562 0-3.28.779-4.173 2.573-1.027 2.054-.134 3.675.245 4.216 0 0 1.228 1.75 2.255 3.22l1.673 2.336 2.5 3.696c.022.022.424.606 1.116.606.67 0 1.071-.584 1.138-.649l5.87-8.41h-3.281Zm-7.343.13s-.982-1.448-1.607-2.443c-.692-1.08.09-2.68 1.607-2.68 1.54 0 2.3 1.6 1.607 2.68-.625 1.016-1.607 2.443-1.607 2.443Z"/><path fill="url(#b)" d="m19.809 36.832-3.683-4.994s-.982-1.449-1.607-2.443c-.691-1.081.09-2.68 1.607-2.68.201 0 .38.02.536.064l1.294-2.291a5.024 5.024 0 0 0-1.83-.368c-1.562 0-3.28.778-4.173 2.573-1.027 2.053-.134 3.675.245 4.215l6.428 9.231c.044.087.468.67 1.138.67.692 0 1.071-.561 1.138-.648l1.942-2.854-1.674-2.378-1.361 1.903Z"/><defs><radialGradient id="a" cx="0" cy="0" r="1" gradientTransform="translate(541.24 102.151) scale(2645.44)" gradientUnits="userSpaceOnUse"><stop stop-color="#FC0"/><stop offset=".092" stop-color="#FFC800"/><stop offset=".174" stop-color="#FFBD00"/><stop offset=".253" stop-color="#FFAB00"/><stop offset=".33" stop-color="#FF9100"/><stop offset=".405" stop-color="#FF7000"/><stop offset=".479" stop-color="#FF4700"/><stop offset=".55" stop-color="#FF1800"/><stop offset=".582" stop-color="red"/><stop offset="1" stop-color="red"/></radialGradient><radialGradient id="b" cx="0" cy="0" r="1" gradientTransform="matrix(2425.66 0 0 2425.67 55.864 119.278)" gradientUnits="userSpaceOnUse"><stop stop-color="#00B4E6"/><stop offset=".201" stop-color="#00B0E3"/><stop offset=".39" stop-color="#01A5DB"/><stop offset=".574" stop-color="#0292CD"/><stop offset=".755" stop-color="#0377BA"/><stop offset=".932" stop-color="#0455A1"/><stop offset="1" stop-color="#054696"/></radialGradient></defs></svg>
